img/ic_pin_filled.svg

<svg width="17" height="17" viewBox="0 0 17 17" fill="none" xmlns="http://www.w3.org/2000/svg">
<path d="M11.729 1.27107C11.34 0.880067 10.708 0.878067 10.315 1.26707C10.211 1.37107 10.139 1.49407 10.09 1.62207C9.258 3.35807 8.342 4.33707 7.186 4.91507C5.889 5.55507 4.4 6.00007 2 6.00007C1.87 6.00007 1.74 6.02507 1.618 6.07607C1.373 6.17807 1.179 6.37307 1.077 6.61707C0.976 6.86107 0.976 7.13707 1.077 7.38107C1.128 7.50407 1.201 7.61507 1.294 7.70707L4.537 10.9501L0 17.0001L6.05 12.4631L9.292 15.7051C9.384 15.7991 9.495 15.8711 9.618 15.9221C9.74 15.9731 9.87 16.0001 10 16.0001C10.13 16.0001 10.26 15.9731 10.382 15.9221C10.627 15.8201 10.822 15.6271 10.923 15.3811C10.974 15.2601 11 15.1291 11 15.0001C11 12.6001 11.444 11.1111 12.083 9.83407C12.66 8.67807 13.639 7.76207 15.376 6.93007C15.505 6.88107 15.627 6.80907 15.73 6.70507C16.119 6.31207 16.117 5.68007 15.726 5.29107L11.729 1.27107Z" fill="black"/>
</svg>

<svg width="17" height="17" fill="none" xmlns="http://www.w3.org/2000/svg"><path d="M11.729 1.271a1 1 0 0 0-1.414-.004 1.004 1.004 0 0 0-.225.355c-.832 1.736-1.748 2.715-2.904 3.293C5.889 5.555 4.4 6 2 6a1.006 1.006 0 0 0-.923.617 1.001 1.001 0 0 0 .217 1.09l3.243 3.243L0 17l6.05-4.537 3.242 3.242a.975.975 0 0 0 .326.217A.992.992 0 0 0 10 16c.13 0 .26-.027.382-.078A.996.996 0 0 0 11 15c0-2.4.444-3.889 1.083-5.166.577-1.156 1.556-2.072 3.293-2.904a.983.983 0 0 0 .354-.225 1 1 0 0 0-.004-1.414l-3.997-4.02z" fill="#000"/></svg>
